svg/u1f96a.svg

<svg viewBox="0 0 128 128" xmlns="http://www.w3.org/2000/svg">
  <path d="M120.83,78.78c-1,2.11-14.62,13.81-23.13,21.15c-8.51,7.34-18.19,13.79-18.19,13.79l-7.48-0.44 l1.32-62.35l46.21,15.11c0,0,1.38,0.93,1.53,3.13C121.23,71.37,121.67,77.01,120.83,78.78z" fill="#D46F1E"/>
  <path d="M12.16,81.74c-0.88,0.15-2.49,0.29-3.08,3.52c-0.59,3.23,0.01,9.75,2.36,12.1 c5.01,5.01,11.84,6.58,17.15,7.12c4.7,0.48,7.38,0.02,8.69,0.77c2.28,1.32,2.33,3.97,8.26,7.42c4.48,2.61,12.28,5.06,17.7,5.06 c9.02,0,16.25-4.01,16.25-4.01l-0.15-12.47l-5.28-28.61L12.16,81.74z" fill="#E48216"/>
  <path d="M18.18,92.45c9.89,3.77,22.15,2.35,22.15,2.35s2.79,6.16,12.62,9.39c9.83,3.23,21.86,1.61,29.64-3.81 s21.13-17.9,25.67-21.71s10.86-9.54,11-11S93.88,46.24,93.88,46.24S13.57,82.82,11.83,83.95C10.53,84.81,12.02,90.1,18.18,92.45z" fill="#FADFB1"/>
  <path d="M14.8,74.7c0,0-5.13,0.29-5.13,3.81c0,3.52,1.91,6.46,6.75,8.66s15.26,4.99,23.47,6.9 c8.32,1.93,20.98,9.1,28.46,9.83c7.3,0.72,13.06-5.58,16.43-8.66c3.37-3.08,20.1-15.99,23.91-19.81 c3.81-3.81,11.88-12.47,11.88-12.47l-55.16-20.1L14.8,74.7z" fill="#EC8B7A"/>
  <path d="M19.02,80.03c0,0-2.02-0.09-3.31-0.37s-3.59-1.2-3.31-0.18s2.44,3.16,6.62,5.06 c4.51,2.04,10.35,2.43,10.27,2.24c0,0,2.96,2.35,6.28,3.41c4.05,1.29,8.28,2.5,11.49,2.78c3.05,0.27,3.6-0.34,2.5-1.45 s-4.05-2.94-4.05-2.94l-15.64-9.29L19.02,80.03z" fill="#D45E51"/>
  <path d="M53.52,93.64c-0.12,1.04,4.69,3.59,8.19,5.06s9.64,3.39,9.29-1.01c-0.24-3.01-4.02-3.34-8.28-3.77 C58.24,93.47,53.62,92.79,53.52,93.64z" fill="#D45E51"/>
  <path d="M12.67,57.58c0,0-4.88,9.2-6.53,8.83s-2.39-1.47-3.13-0.55s-0.83,7.91,3.04,9.02s4.39-0.24,6.69,0.77 s5.25,2.69,5.25,2.69s-1.8,1.56-1.53,2.02s3.2,1.9,4.58,3.19s1.64,2.71,7.9,3.72s7.75,0.94,10.05,0.67s3.22-1.38,3.22-1.38 s3.31,4.42,6.62,4.6s4.23-0.92,5.34-0.92s-0.55,1.1,2.94,1.1s7.49,0.32,12.13,1.58c3.27,0.89,6.36,4.21,8.48,4.95 s5.24,0.09,6.16-0.92s0.9-3.44,2.64-5.27s6.28-4.16,7.84-5.82s2.58-6.85,2.58-6.85s2.12,1.66,3.96,1.29s3.96-3.59,5.61-3.86 s3.31-0.74,4.88-2.3s0.92-5.7,1.93-6.44s4.88,1.56,6.9,1.01s3.96-3.5,3.5-5.43c-0.46-1.93-0.92-2.21-0.92-3.31s1.2-2.94-0.28-4.78 S95.83,43.32,95.83,43.32L12.67,57.58z" fill="#B7D019"/>
  <path d="M21.04,72.85c0,0-1.2,2.67-0.74,3.22s7.27,6.16,8.92,6.35s13.62-0.28,13.62-0.28l-5.15-9.29H21.04z" fill="#96A819"/>
  <path d="M64.28,74.51c0,0-5.24,11.5-4.6,12.51s5.8,1.2,10.21,2.39s5.7,1.84,7.18,1.75s7.54-3.5,7.64-4.6 s-4.69-6.62-4.69-6.62L64.28,74.51z" fill="#96A819"/>
  <path d="M94.73,71.01l-1.84,4.78c0,0,8.56,0.55,12.42-1.29s6.66-8.51,7.86-10.53c1.66-2.78,4-5.18,3.81-6.19 s-6.06-4.9-6.06-4.9L94.73,71.01z" fill="#96A819"/>
  <path d="M95.47,72.02c0,0-9.29,2.39-9.48,2.94s-8.65,9.84-8.65,9.84s6.26,3.04,13.25-0.92 C97.58,79.94,95.47,72.02,95.47,72.02z" fill="#DC0D2A"/>
  <path d="M118.19,44.61c0,0,5.06,1.38,4.23,7.64c-0.97,7.32-13.34,6.99-13.34,6.99s-3.31-8.83-2.76-9.29 S118.19,44.61,118.19,44.61z" fill="#DC0D2A"/>
  <path d="M44.78,72.76l-7.45,3.86c0,0,1.2,7.82,13.62,9.94s19.32-8.65,19.32-8.65L44.78,72.76z" fill="#DC0D2A"/>
  <path d="M22.42,64.76l-8.19,0.37c0,0-0.3,5.31,3.96,8.37c5.31,3.81,13.06,2.02,13.06,2.02L22.42,64.76z" fill="#DC0D2A"/>
  <path d="M37.6,63.1l-15.64,3.96c0,0,7.91,10.49,11.04,10.76s18.58-2.94,18.58-2.94L37.6,63.1z" fill="#FEDF64"/>
  <path d="M61.15,78.92c0,0,9.67,7.81,14.08,7.45c3.4-0.28,7.7-6.24,13.32-9.28s14.11-5.27,15.57-6.36 c2.89-2.16,6.9-13.98,8.83-16.74s6.72-9.11,6.81-10.12s-0.83-4.23-0.83-4.23L82.4,68.62L61.15,78.92z" fill="#FEDF64"/>
  <path d="M68.97,77.45c0.46-0.09,9.38,0.92,9.38,0.92s7.21-5.58,18.25-14.69s21.33-18.95,23.63-22.95 c0.66-1.14,0.95-8.16,0.98-9.92c0.06-3.06-1.64-3.63-1.64-3.63l-49.6,35.55L68.97,77.45z" fill="#D46F1E"/>
  <path d="M78.45,64.66c0,0.92,0.61,13.12-0.09,13.71c-1.66,1.38-16.19,5.43-28.52-0.18 C37.99,72.8,35.94,67.98,35.94,67.98s-15.02,1.71-23.92-3.31c-5.7-3.22-5.98-9.48-5.89-12.7s0.46-6.26,1.75-7.64 S26.01,28.88,29.6,26.03c3.59-2.85,19.59-14.63,22.08-15.09s23.83,3.68,31,5.34s28.06,7.08,31.65,8.46s5.8,2.21,5.89,3.22 s-1.01,2.58-2.3,3.68c-1.29,1.1-28.98-0.37-29.71,4.69S78.45,64.66,78.45,64.66z" fill="#E38211"/>
  <path d="M52.14,13.28c-2.79,0.49-18.52,12.89-22.96,16.46S13.26,42.63,11.31,44.36 c-1.95,1.73-4.12,8.12,5.41,11.8c9.53,3.68,22.85,1.95,22.85,1.95s4.77,9.31,16.14,10.51s19.17,0.76,24.15-3.25 c4.98-4.01,21.55-18.09,25.34-21.55c3.79-3.47,13.51-12.12,13.32-13.32c-0.54-3.47-27.18-9.31-38.55-11.91 C69.72,16.24,54.63,12.85,52.14,13.28z" fill="#FADFB1"/>
</svg>

<svg viewBox="0 0 128 128" xmlns="http://www.w3.org/2000/svg">
  <defs/>
  <path d="M120.83,78.78 C119.83,80.89 106.21,92.59 97.7,99.93 C89.19,107.27 79.51,113.72 79.51,113.72 L72.03,113.28 L73.35,50.93 L119.56,66.04 C119.56,66.04 120.94,66.97 121.09,69.17 C121.23,71.37 121.67,77.01 120.83,78.78 Z" fill="#D46F1E"/>
  <path d="M12.16,81.74 C11.28,81.89 9.67,82.03 9.08,85.26 C8.49,88.49 9.09,95.01 11.44,97.36 C16.45,102.37 23.28,103.94 28.59,104.48 C33.29,104.96 35.97,104.5 37.28,105.25 C39.56,106.57 39.61,109.22 45.54,112.67 C50.02,115.28 57.82,117.73 63.24,117.73 C72.26,117.73 79.49,113.72 79.49,113.72 L79.34,101.25 L74.06,72.64 L12.16,81.74 Z" fill="#E48216"/>
  <path d="M18.18,92.45 C28.07,96.22 40.33,94.8 40.33,94.8 C40.33,94.8 43.12,100.96 52.95,104.19 C62.78,107.42 74.81,105.8 82.59,100.38 C90.37,94.96 103.72,82.48 108.26,78.67 C112.8,74.86 119.12,69.13 119.26,67.67 C119.4,66.21 93.88,46.24 93.88,46.24 C93.88,46.24 13.57,82.82 11.83,83.95 C10.53,84.81 12.02,90.1 18.18,92.45 Z" fill="#FADFB1"/>
  <path d="M14.8,74.7 C14.8,74.7 9.67,74.99 9.67,78.51 C9.67,82.03 11.58,84.97 16.42,87.17 C21.26,89.37 31.68,92.16 39.89,94.07 C48.21,96 60.87,103.17 68.35,103.9 C75.65,104.62 81.41,98.32 84.78,95.24 C88.15,92.16 104.88,79.25 108.69,75.43 C112.5,71.62 120.57,62.96 120.57,62.96 L65.41,42.86 L14.8,74.7 Z" fill="#EC8B7A"/>
  <path d="M19.02,80.03 C19.02,80.03 17,79.94 15.71,79.66 C14.42,79.38 12.12,78.46 12.4,79.48 C12.68,80.5 14.84,82.64 19.02,84.54 C23.53,86.58 29.37,86.97 29.29,86.78 C29.29,86.78 32.25,89.13 35.57,90.19 C39.62,91.48 43.85,92.69 47.06,92.97 C50.11,93.24 50.66,92.63 49.56,91.52 C48.46,90.41 45.51,88.58 45.51,88.58 L29.87,79.29 L19.02,80.03 Z" fill="#D45E51"/>
  <path d="M53.52,93.64 C53.4,94.68 58.21,97.23 61.71,98.7 C65.21,100.17 71.35,102.09 71,97.69 C70.76,94.68 66.98,94.35 62.72,93.92 C58.24,93.47 53.62,92.79 53.52,93.64 Z" fill="#D45E51"/>
  <path d="M12.67,57.58 C12.67,57.58 7.79,66.78 6.14,66.41 C4.49,66.04 3.75,64.94 3.01,65.86 C2.27,66.78 2.18,73.77 6.05,74.88 C9.92,75.99 10.44,74.64 12.74,75.65 C15.04,76.66 17.99,78.34 17.99,78.34 C17.99,78.34 16.19,79.9 16.46,80.36 C16.73,80.82 19.66,82.26 21.04,83.55 C22.42,84.84 22.68,86.26 28.94,87.27 C35.2,88.28 36.69,88.21 38.99,87.94 C41.29,87.67 42.21,86.56 42.21,86.56 C42.21,86.56 45.52,90.98 48.83,91.16 C52.14,91.34 53.06,90.24 54.17,90.24 C55.28,90.24 53.62,91.34 57.11,91.34 C60.6,91.34 64.6,91.66 69.24,92.92 C72.51,93.81 75.6,97.13 77.72,97.87 C79.84,98.61 82.96,97.96 83.88,96.95 C84.8,95.94 84.78,93.51 86.52,91.68 C88.26,89.85 92.8,87.52 94.36,85.86 C95.92,84.2 96.94,79.01 96.94,79.01 C96.94,79.01 99.06,80.67 100.9,80.3 C102.74,79.93 104.86,76.71 106.51,76.44 C108.16,76.17 109.82,75.7 111.39,74.14 C112.96,72.58 112.31,68.44 113.32,67.7 C114.33,66.96 118.2,69.26 120.22,68.71 C122.24,68.16 124.18,65.21 123.72,63.28 C123.26,61.35 122.8,61.07 122.8,59.97 C122.8,58.87 124,57.03 122.52,55.19 C121.04,53.35 95.83,43.32 95.83,43.32 L12.67,57.58 Z" fill="#B7D019"/>
  <path d="M21.04,72.85 C21.04,72.85 19.84,75.52 20.3,76.07 C20.76,76.62 27.57,82.23 29.22,82.42 C30.87,82.61 42.84,82.14 42.84,82.14 L37.69,72.85 L21.04,72.85 Z" fill="#96A819"/>
  <path d="M64.28,74.51 C64.28,74.51 59.04,86.01 59.68,87.02 C60.32,88.03 65.48,88.22 69.89,89.41 C74.3,90.6 75.59,91.25 77.07,91.16 C78.55,91.07 84.61,87.66 84.71,86.56 C84.81,85.46 80.02,79.94 80.02,79.94 L64.28,74.51 Z" fill="#96A819"/>
  <path d="M94.73,71.01 L92.89,75.79 C92.89,75.79 101.45,76.34 105.31,74.5 C109.17,72.66 111.97,65.99 113.17,63.97 C114.83,61.19 117.17,58.79 116.98,57.78 C116.79,56.77 110.92,52.88 110.92,52.88 L94.73,71.01 Z" fill="#96A819"/>
  <path d="M95.47,72.02 C95.47,72.02 86.18,74.41 85.99,74.96 C85.8,75.51 77.34,84.8 77.34,84.8 C77.34,84.8 83.6,87.84 90.59,83.88 C97.58,79.94 95.47,72.02 95.47,72.02 Z" fill="#DC0D2A"/>
  <path d="M118.19,44.61 C118.19,44.61 123.25,45.99 122.42,52.25 C121.45,59.57 109.08,59.24 109.08,59.24 C109.08,59.24 105.77,50.41 106.32,49.95 C106.87,49.49 118.19,44.61 118.19,44.61 Z" fill="#DC0D2A"/>
  <path d="M44.78,72.76 L37.33,76.62 C37.33,76.62 38.53,84.44 50.95,86.56 C63.37,88.68 70.27,77.91 70.27,77.91 L44.78,72.76 Z" fill="#DC0D2A"/>
  <path d="M22.42,64.76 L14.23,65.13 C14.23,65.13 13.93,70.44 18.19,73.5 C23.5,77.31 31.25,75.52 31.25,75.52 L22.42,64.76 Z" fill="#DC0D2A"/>
  <path d="M37.6,63.1 L21.96,67.06 C21.96,67.06 29.87,77.55 33,77.82 C36.13,78.09 51.58,74.88 51.58,74.88 L37.6,63.1 Z" fill="#FEDF64"/>
  <path d="M61.15,78.92 C61.15,78.92 70.82,86.73 75.23,86.37 C78.63,86.09 82.93,80.13 88.55,77.09 C94.17,74.05 102.66,71.82 104.12,70.73 C107.01,68.57 111.02,56.75 112.95,53.99 C114.88,51.23 119.67,44.88 119.76,43.87 C119.85,42.86 118.93,39.64 118.93,39.64 L82.4,68.62 L61.15,78.92 Z" fill="#FEDF64"/>
  <path d="M68.97,77.45 C69.43,77.36 78.35,78.37 78.35,78.37 C78.35,78.37 85.56,72.79 96.6,63.68 C107.64,54.57 117.93,44.73 120.23,40.73 C120.89,39.59 121.18,32.57 121.21,30.81 C121.27,27.75 119.57,27.18 119.57,27.18 L69.97,62.73 L68.97,77.45 Z" fill="#D46F1E"/>
  <path d="M78.45,64.66 C78.45,65.58 79.06,77.78 78.36,78.37 C76.7,79.75 62.17,83.8 49.84,78.19 C37.99,72.8 35.94,67.98 35.94,67.98 C35.94,67.98 20.92,69.69 12.02,64.67 C6.32,61.45 6.04,55.19 6.13,51.97 C6.22,48.75 6.59,45.71 7.88,44.33 C9.17,42.95 26.01,28.88 29.6,26.03 C33.19,23.18 49.19,11.4 51.68,10.94 C54.17,10.48 75.51,14.62 82.68,16.28 C89.85,17.94 110.74,23.36 114.33,24.74 C117.92,26.12 120.13,26.95 120.22,27.96 C120.31,28.97 119.21,30.54 117.92,31.64 C116.63,32.74 88.94,31.27 88.21,36.33 C87.48,41.39 78.45,64.66 78.45,64.66 Z" fill="#E38211"/>
  <path d="M52.14,13.28 C49.35,13.77 33.62,26.17 29.18,29.74 C24.74,33.31 13.26,42.63 11.31,44.36 C9.36,46.09 7.19,52.48 16.72,56.16 C26.25,59.84 39.57,58.11 39.57,58.11 C39.57,58.11 44.34,67.42 55.71,68.62 C67.08,69.82 74.88,69.38 79.86,65.37 C84.84,61.36 101.41,47.28 105.2,43.82 C108.99,40.35 118.71,31.7 118.52,30.5 C117.98,27.03 91.34,21.19 79.97,18.59 C69.72,16.24 54.63,12.85 52.14,13.28 Z" fill="#FADFB1"/>
</svg>
